src/icons/svg/security.svg

<?xml version="1.0" encoding="UTF-8"?>
<svg width="40px" height="49px" viewBox="0 0 40 49" version="1.1" xmlns="http://www.w3.org/2000/svg"
>
    <path d="M20,0 C24.1212179,0 27.9436593,0.475196834 31.3753201,1.26861429 C32.5832305,1.5474723 33.6588258,1.84861999 34.5902494,2.15071614 C35.1190363,2.32239404 35.5055487,2.46134877 35.7407758,2.55477569 C38.1670303,3.38518447 40,6.06658448 40,8.71004461 L40,30.5871194 C40,33.0532107 38.5720383,36.0144172 36.6570236,37.4684625 L23.7233235,47.2872997 C21.621455,48.8831452 18.382339,48.8869392 16.2762022,47.2872997 L3.34297639,37.4684625 C1.4360239,36.0205824 0,33.0446742 0,30.5871194 L0,8.71004461 C0,6.04951155 1.82822727,3.35672963 4.27013183,2.55050744 C4.50630749,2.45708053 4.88950014,2.31907426 5.40975052,2.15071614 C6.46842413,1.81076867 7.54121458,1.51646333 8.62515413,1.26861429 C12.0563407,0.474722605 15.8787821,0 20,0 Z M20,3.6365361 C16.1671251,3.6365361 12.6173765,4.0780613 9.44418096,4.81172343 C8.34060515,5.06639475 7.36555061,5.33908756 6.53087354,5.60988335 C6.28194478,5.68977766 6.03465303,5.77468537 5.7891492,5.86455468 C5.67200987,5.9067628 5.59897563,5.93521769 5.57099497,5.94707391 C5.52451865,5.96556958 5.47756806,5.98264256 5.42966896,5.99734425 C4.51626671,6.28331597 3.6365361,7.56710618 3.6365361,8.71004461 L3.6365361,30.5871194 C3.6365361,31.9226027 4.55278386,33.8210187 5.54206581,34.5717538 L18.4757659,44.3905909 C19.2815138,45.0023713 20.7218059,45.0009485 21.5256568,44.3905909 L34.4593569,34.5717538 C35.4557526,33.8148535 36.3648866,31.9306649 36.3648866,30.5871194 L36.3648866,8.71004461 C36.3648866,7.58275638 35.4770938,6.2951722 34.5466186,5.98928199 L34.4304278,5.94707391 C34.3578677,5.91861903 34.2853078,5.8911126 34.2122735,5.86455468 C34.0055013,5.78867497 33.7574694,5.70236176 33.4705491,5.60988335 C32.511242,5.30251153 31.5392554,5.03621598 30.5572418,4.81172343 C27.3821493,4.0780613 23.8328749,3.6365361 20,3.6365361 Z M27.8042303,14.4731102 C28.51418,13.7622119 29.6651807,13.7612634 30.3756046,14.4712131 C31.0860286,15.1811629 31.0869771,16.3321636 30.3775017,17.0425875 L18.2742104,29.1639002 C17.5652092,29.8738499 16.415157,29.8757469 15.704733,29.1676942 L9.62581809,23.1139144 C9.15962386,22.6566606 8.97428055,21.9846102 9.14018781,21.3530305 C9.30631373,20.7214747 9.79831507,20.2274822 10.4291947,20.0588068 C11.059945,19.8904487 11.7329033,20.0730343 12.1915015,20.5373234 L16.9837807,25.3096842 L27.8042303,14.4731102 Z"
          id="形状"></path>
</svg>

<svg width="40" height="49" xmlns="http://www.w3.org/2000/svg"><path d="M20 0c4.121 0 7.944.475 11.375 1.269a38.65 38.65 0 0 1 3.215.882c.529.171.916.31 1.15.404C38.168 3.385 40 6.067 40 8.71v21.877c0 2.466-1.428 5.427-3.343 6.881l-12.934 9.82c-2.102 1.595-5.34 1.599-7.447 0l-12.933-9.82C1.436 36.021 0 33.045 0 30.588V8.71c0-2.66 1.828-5.353 4.27-6.16.236-.093.62-.23 1.14-.4a38.82 38.82 0 0 1 3.215-.881C12.056.475 15.88 0 20 0zm0 3.637c-3.833 0-7.383.441-10.556 1.175a34.995 34.995 0 0 0-2.913.798 19.44 19.44 0 0 0-.96.337 1.852 1.852 0 0 1-.141.05c-.914.286-1.793 1.57-1.793 2.713v21.877c0 1.336.916 3.234 1.905 3.985l12.934 9.819c.806.611 2.246.61 3.05 0l12.933-9.82c.997-.756 1.906-2.64 1.906-3.984V8.71c0-1.127-.888-2.415-1.818-2.72l-.117-.043a19.731 19.731 0 0 0-.96-.337 35.41 35.41 0 0 0-2.913-.798C27.382 4.078 23.833 3.637 20 3.637zm7.804 10.836a1.818 1.818 0 1 1 2.574 2.57l-12.104 12.12c-.709.71-1.859.713-2.57.005l-6.078-6.054a1.82 1.82 0 1 1 2.566-2.577l4.792 4.773 10.82-10.837z"/></svg>
